packages/clay/build/images/icons/columns.svg

<?xml version="1.0" encoding="utf-8"?>
<!-- Generated by IcoMoon.io -->
<!DOCTYPE svg PUBLIC "-//W3C//DTD SVG 1.1//EN" "http://www.w3.org/Graphics/SVG/1.1/DTD/svg11.dtd">
<svg version="1.1" xmlns="http://www.w3.org/2000/svg" xmlns:xlink="http://www.w3.org/1999/xlink" width="512" height="512" viewBox="0 0 512 512"><g id="icomoon-ignore">
</g>
<path d="M0 46.948v418.104c0 25.822 21.127 46.948 46.948 46.948h130.798c25.821 0 46.948-21.127 46.948-46.948v-418.104c0-25.822-21.126-46.948-46.948-46.948h-130.798c-25.822 0-46.948 21.127-46.948 46.948zM160.694 64v384h-96v-384h96z"></path>
<path d="M287.307 46.948v418.104c0 25.822 21.127 46.948 46.948 46.948h130.798c25.822 0 46.948-21.127 46.948-46.948v-418.104c0-25.822-21.127-46.948-46.948-46.948h-130.798c-25.822 0-46.948 21.127-46.948 46.948zM448 64v384h-96v-384h96z"></path>
</svg>

<?xml version="1.0" encoding="utf-8"?>
<!-- Generator: Adobe Illustrator 19.2.1, SVG Export Plug-In . SVG Version: 6.00 Build 0)  -->
<svg version="1.1" id="Layer_1" xmlns="http://www.w3.org/2000/svg" xmlns:xlink="http://www.w3.org/1999/xlink" x="0px" y="0px"
	 viewBox="0 0 512 512" style="enable-background:new 0 0 512 512;" xml:space="preserve">
<path class="lexicon-icon-body" fill="none" d="M0,46.9v418.1C0,490.9,21.1,512,46.9,512h130.8c25.8,0,46.9-21.1,46.9-46.9V46.9c0-25.8-21.1-46.9-46.9-46.9
	H46.9C21.1,0,0,21.1,0,46.9z"/>
<path class="lexicon-icon-body" fill="none" d="M287.3,46.9v418.1c0,25.8,21.1,46.9,46.9,46.9h130.8c25.8,0,46.9-21.1,46.9-46.9V46.9C512,21.1,490.9,0,465.1,0
	H334.3C308.4,0,287.3,21.1,287.3,46.9L287.3,46.9z"/>
<path class="lexicon-icon-outline" d="M0,46.9v418.1C0,490.9,21.1,512,46.9,512h130.8c25.8,0,46.9-21.1,46.9-46.9V46.9c0-25.8-21.1-46.9-46.9-46.9H46.9
	C21.1,0,0,21.1,0,46.9z M160.7,64v384h-96V64H160.7z"/>
<path class="lexicon-icon-outline" d="M287.3,46.9v418.1c0,25.8,21.1,46.9,46.9,46.9h130.8c25.8,0,46.9-21.1,46.9-46.9V46.9C512,21.1,490.9,0,465.1,0H334.3
	C308.4,0,287.3,21.1,287.3,46.9L287.3,46.9z M448,64v384h-96V64H448z"/>
</svg>
